X:9103
T:Lad O'Beirne's
R:reel
B:Mel Bay's complete Irish Fiddler
M:C|
L:1/8
Q:1/4=200
K:G
|:D~G3 DGBG|AcBG A~E3|D~G3 DGBd|eged edge|
d~B3 dBAB|c~E3 GEDB,|DEGA ~B3c|1 dBAc BGGE:|2 dBAc BGGA|
|:Bdd^c d2ef|g2bg abge|d~B3 dBAB|c~E3 GED2|
Bdd^c d2ef|g2fa ged2|DEGA B3c|1 dBAc BGGA:|2 dBAc BGG2|]


